X:72
T:Sgt. O'Leary
M:6/8
L:1/8
U:H=!tenuto!
K:D
(3(A/B/c/)|:.d2d def|.d2d def|(LeA)A ALcLd|(LeA)A ALB(c|.d2)d def|.d2d def|(LeA)A ABc|[1 ddf dz (3(A/B/c/):|
[2 ddf Ld2f|:La2f La2f|Hd2.d dLfLg|b2g b2g|He2.e Le2Lf|La2f La2f|Hd2.d def|(LeA).A .A.B.c|[1 .d.dLf Ld2Lf:|[2 LdLdLa Lb2z|]
